X:930
T:Earl Marshall's Reel
B:Aird's Airs and Melodies vol 3
M:C
Z:Richard Robinson 
%%TUNEURL: http://www.leeds.ac.uk/music/Info/RRTuneBk/gettune/0000024a.html
%%ID:0000024a
K:G
G2G>B d>BBd| B/c/d GB dBBg| G2G>B dBBd| e/f/g d>B BAAB:|
g>ag>d (e2e)g| d>gB>g d>gB>g| \
(b/a/g/f/ g)>d e2e>g| dB B<AA>B|
g>ag>d (e2e)>g| d>gB>g d>gB>g|\
(b/a/g/f/ g)>d e2(e/g/f/g/)| dB B<AA>B|]
